X: 12981
T: Fiery Clockface, The
R: jig
M: 6/8
K: Dmajor
|:d2d D2E|F2G A2B|=c2=c E2F|G2A B2c|
d2d D2E|F2G A2B|Bcd e2c|1 d3d3:|2 d3d2e||
|:f2f def|g2f e2d|c2B A2B|c2d e2^e|
f2f def|g2f e2d|cBA B2c|1 d3d2e:|2 d3d3||

